Newaita-dark/apps/48/insomnia.svg

<svg height="48pt" viewBox="0 0 48 48" width="48pt" xmlns="http://www.w3.org/2000/svg" xmlns:xlink="http://www.w3.org/1999/xlink"><linearGradient id="a"><stop offset="0" stop-opacity=".313726"/><stop offset=".222222" stop-opacity=".27451"/><stop offset="1" stop-opacity="0"/></linearGradient><radialGradient id="b" cx="450.908936" cy="189.579361" gradientTransform="matrix(.00000036 -.102549 -.288309 -.00000013 78.984696 88.973262)" gradientUnits="userSpaceOnUse" r="21.166656" xlink:href="#a"/><radialGradient id="c" cx="450.908936" cy="189.579361" gradientTransform="matrix(-.00000036 .102549 .288309 .00000013 -31.685907 -4.375346)" gradientUnits="userSpaceOnUse" r="21.166656" xlink:href="#a"/><radialGradient id="d" cx="450.908936" cy="189.579361" gradientTransform="matrix(-.00000036 -.102549 .288309 -.00000013 -31.685907 88.973262)" gradientUnits="userSpaceOnUse" r="21.166656" xlink:href="#a"/><radialGradient id="e" cx="450.908936" cy="189.579361" gradientTransform="matrix(.00000036 .102549 -.288309 .00000013 78.984692 -4.375346)" gradientUnits="userSpaceOnUse" r="21.166656" xlink:href="#a"/><linearGradient id="f" gradientTransform="matrix(.0273881 0 0 .082039 16.656575 23.142854)" gradientUnits="userSpaceOnUse" x1="255.323059" x2="255.323044" y1="233.5" y2="254.666656"><stop offset="0" stop-opacity=".27451"/><stop offset="1" stop-opacity="0"/></linearGradient><linearGradient id="g" gradientUnits="userSpaceOnUse" x1="23.814786" x2="23.814786" y1="42.0509015" y2="4.34415649995"><stop offset="0" stop-color="#bdbdbd"/><stop offset="1" stop-color="#e0e0e0"/></linearGradient><linearGradient id="h" gradientUnits="userSpaceOnUse" x1="23.8147844" x2="23.8147844" y1="37.0894886" y2="9.30556276488"><stop offset="0" stop-color="#5c6bc0"/><stop offset="1" stop-color="#7986cb"/></linearGradient><path d="m25.003906 42.300781h5.425782v-1.738281h-5.425782zm0 0" fill="url(#b)"/><path d="m22.292969 42.300781h-5.425781v1.734375h5.425781zm0 0" fill="url(#c)"/><path d="m22.292969 42.300781h-5.425781v-1.738281h5.425781zm0 0" fill="url(#d)"/><path d="m25.003906 42.300781h5.425782v1.734375h-5.425782zm0 0" fill="url(#e)"/><path d="m22.292969 41.863281h2.710937v2.171875h-2.710937zm0 0" fill="url(#f)"/><path d="m23.816406 4.34375c10.410156 0 18.851563 8.441406 18.851563 18.855469 0 10.410156-8.441407 18.851562-18.851563 18.851562-10.414062 0-18.855468-8.441406-18.855468-18.851562 0-10.414063 8.441406-18.855469 18.855468-18.855469zm0 0" fill="url(#g)"/><path d="m23.816406 4.34375c-10.445312 0-18.855468 8.410156-18.855468 18.855469 0 .125.003906.253906.003906.378906.203125-10.265625 8.53125-18.472656 18.851562-18.472656 10.316406 0 18.644532 8.207031 18.847656 18.472656.003907-.125.003907-.253906.003907-.378906 0-10.445313-8.410157-18.855469-18.851563-18.855469zm0 0" fill="#fff" fill-opacity=".470588"/><path d="m23.816406 42.050781c-10.445312 0-18.855468-8.410156-18.855468-18.851562 0-.128907.003906-.253907.003906-.382813.203125 10.269532 8.53125 18.472656 18.851562 18.472656 10.316406 0 18.644532-8.203124 18.847656-18.472656.003907.128906.003907.253906.003907.382813 0 10.441406-8.410157 18.851562-18.851563 18.851562zm0 0" fill-opacity=".235294"/><path d="m23.816406 4.203125c-10.523437 0-18.996094 8.472656-18.996094 18.996094 0 10.519531 8.472657 18.992187 18.996094 18.992187 10.519532 0 18.992188-8.472656 18.992188-18.992187 0-10.523438-8.472656-18.996094-18.992188-18.996094zm0 .28125c10.367188 0 18.710938 8.34375 18.710938 18.714844 0 10.367187-8.34375 18.710937-18.710938 18.710937-10.371094 0-18.714844-8.34375-18.714844-18.710937 0-10.371094 8.34375-18.714844 18.714844-18.714844zm0 0" fill="#212121"/><path d="m23.816406 9.304688c-1.296875 0-2.550781.175781-3.742187.507812 2.777343 1.078125 4.734375 3.769531 4.734375 6.933594 0 4.125-3.320313 7.445312-7.445313 7.445312-3.164062 0-5.855469-1.957031-6.933593-4.734375-.332032 1.191407-.507813 2.445313-.507813 3.742188 0 7.695312 6.195313 13.890625 13.894531 13.890625 7.695313 0 13.890625-6.195313 13.890625-13.890625 0-7.699219-6.195312-13.894531-13.890625-13.894531zm0 0" fill="url(#h)"/><path d="m23.816406 9.304688c-1.296875 0-2.550781.175781-3.742187.507812.359375.140625.707031.304688 1.039062.5.871094-.171875 1.777344-.261719 2.703125-.261719 7.570313 0 13.691406 5.996094 13.886719 13.519531 0-.125.003906-.25.003906-.371093 0-7.699219-6.195312-13.894531-13.890625-13.894531zm.980469 7.816406c-.191406 3.949218-3.433594 7.070312-7.433594 7.070312-3.164062 0-5.855469-1.957031-6.933593-4.734375-.332032 1.191407-.507813 2.445313-.507813 3.742188 0 .125.003906.25.007813.378906.027343-1.167969.199218-2.300781.5-3.375 1.078124 2.773437 3.769531 4.730469 6.933593 4.730469 4.125 0 7.445313-3.320313 7.445313-7.441406 0-.125-.003906-.246094-.011719-.371094zm0 0" fill="#fff" fill-opacity=".392157"/><path d="m21.085938 9.570312c-.34375.070313-.679688.148438-1.011719.242188 2.667969 1.035156 4.582031 3.566406 4.722656 6.574219.007813-.121094.011719-.242188.011719-.363281 0-2.765626-1.496094-5.167969-3.722656-6.453126zm16.617187 13.265626c-.191406 7.527343-6.3125 13.53125-13.886719 13.53125-7.574218 0-13.695312-6-13.890625-13.523438 0 .117188-.003906.234375-.003906.355469 0 7.695312 6.195313 13.890625 13.894531 13.890625 7.695313 0 13.890625-6.195313 13.890625-13.890625 0-.121094 0-.242188-.003906-.363281zm0 0" fill-opacity=".235294"/><path d="m23.816406 9.164062c-1.3125 0-2.578125.179688-3.777344.511719-.058593.015625-.101562.066407-.105468.128907-.003906.058593.035156.117187.089844.136718 2.722656 1.058594 4.644531 3.699219 4.644531 6.804688 0 4.050781-3.253907 7.304687-7.304688 7.304687-3.105469 0-5.746093-1.921875-6.804687-4.644531-.019532-.054688-.078125-.09375-.136719-.089844-.0625.003906-.113281.046875-.128906.105469-.332031 1.199219-.511719 2.464844-.511719 3.777344 0 7.769531 6.261719 14.03125 14.035156 14.03125 7.769532 0 14.03125-6.261719 14.03125-14.03125 0-7.773438-6.261718-14.035157-14.03125-14.035157zm0 .28125c7.617188 0 13.75 6.132813 13.75 13.753907 0 7.617187-6.132812 13.75-13.75 13.75-7.621094 0-13.753906-6.132813-13.753906-13.75 0-1.144531.140625-2.25.398438-3.308594 1.191406 2.621094 3.828124 4.441406 6.902343 4.441406 4.199219 0 7.585938-3.386719 7.585938-7.585937 0-3.074219-1.820313-5.710938-4.441407-6.902344 1.058594-.257812 2.164063-.398438 3.308594-.398438zm0 0" fill="#212121"/></svg>

<?xml version="1.0" encoding="UTF-8"?>
<svg xmlns="http://www.w3.org/2000/svg" xmlns:xlink="http://www.w3.org/1999/xlink" width="48pt" height="48pt" viewBox="0 0 48 48" version="1.1">
<defs>
<radialGradient id="radial0" gradientUnits="userSpaceOnUse" cx="450.908936" cy="189.579361" fx="450.908936" fy="189.579361" r="21.166656" gradientTransform="matrix(0.000000357049,-0.102549,-0.288309,-0.000000133269,78.984696,88.973262)">
<stop offset="0" style="stop-color:rgb(0%,0%,0%);stop-opacity:0.313726;"/>
<stop offset="0.222222" style="stop-color:rgb(0%,0%,0%);stop-opacity:0.27451;"/>
<stop offset="1" style="stop-color:rgb(0%,0%,0%);stop-opacity:0;"/>
</radialGradient>
<radialGradient id="radial1" gradientUnits="userSpaceOnUse" cx="450.908936" cy="189.579361" fx="450.908936" fy="189.579361" r="21.166656" gradientTransform="matrix(-0.000000357049,0.102549,0.288309,0.000000133269,-31.685907,-4.375346)">
<stop offset="0" style="stop-color:rgb(0%,0%,0%);stop-opacity:0.313726;"/>
<stop offset="0.222222" style="stop-color:rgb(0%,0%,0%);stop-opacity:0.27451;"/>
<stop offset="1" style="stop-color:rgb(0%,0%,0%);stop-opacity:0;"/>
</radialGradient>
<radialGradient id="radial2" gradientUnits="userSpaceOnUse" cx="450.908936" cy="189.579361" fx="450.908936" fy="189.579361" r="21.166656" gradientTransform="matrix(-0.000000357049,-0.102549,0.288309,-0.000000133269,-31.685907,88.973262)">
<stop offset="0" style="stop-color:rgb(0%,0%,0%);stop-opacity:0.313726;"/>
<stop offset="0.222222" style="stop-color:rgb(0%,0%,0%);stop-opacity:0.27451;"/>
<stop offset="1" style="stop-color:rgb(0%,0%,0%);stop-opacity:0;"/>
</radialGradient>
<radialGradient id="radial3" gradientUnits="userSpaceOnUse" cx="450.908936" cy="189.579361" fx="450.908936" fy="189.579361" r="21.166656" gradientTransform="matrix(0.000000357049,0.102549,-0.288309,0.000000133269,78.984692,-4.375346)">
<stop offset="0" style="stop-color:rgb(0%,0%,0%);stop-opacity:0.313726;"/>
<stop offset="0.222222" style="stop-color:rgb(0%,0%,0%);stop-opacity:0.27451;"/>
<stop offset="1" style="stop-color:rgb(0%,0%,0%);stop-opacity:0;"/>
</radialGradient>
<linearGradient id="linear0" gradientUnits="userSpaceOnUse" x1="255.323059" y1="233.5" x2="255.323044" y2="254.666656" gradientTransform="matrix(0.0273881,0,0,0.082039,16.656575,23.142854)">
<stop offset="0" style="stop-color:rgb(0%,0%,0%);stop-opacity:0.27451;"/>
<stop offset="1" style="stop-color:rgb(0%,0%,0%);stop-opacity:0;"/>
</linearGradient>
<linearGradient id="linear1" gradientUnits="userSpaceOnUse" x1="254" y1="233.5" x2="254" y2="-168.666672" gradientTransform="matrix(0.093759,0,0,0.093759,0,20.158175)">
<stop offset="0" style="stop-color:rgb(74.117649%,74.117649%,74.117649%);stop-opacity:1;"/>
<stop offset="1" style="stop-color:rgb(87.843138%,87.843138%,87.843138%);stop-opacity:1;"/>
</linearGradient>
<linearGradient id="linear2" gradientUnits="userSpaceOnUse" x1="254" y1="233.5" x2="254" y2="-168.666672" gradientTransform="matrix(0.0690856,0,0,0.0690856,6.267042,20.958001)">
<stop offset="0" style="stop-color:rgb(36.078432%,41.960785%,75.294119%);stop-opacity:1;"/>
<stop offset="1" style="stop-color:rgb(47.450981%,52.549022%,79.607844%);stop-opacity:1;"/>
</linearGradient>
</defs>
<g id="surface1">
<path style=" stroke:none;fill-rule:nonzero;fill:url(#radial0);" d="M 25.003906 42.300781 L 30.429688 42.300781 L 30.429688 40.5625 L 25.003906 40.5625 Z M 25.003906 42.300781 "/>
<path style=" stroke:none;fill-rule:nonzero;fill:url(#radial1);" d="M 22.292969 42.300781 L 16.867188 42.300781 L 16.867188 44.035156 L 22.292969 44.035156 Z M 22.292969 42.300781 "/>
<path style=" stroke:none;fill-rule:nonzero;fill:url(#radial2);" d="M 22.292969 42.300781 L 16.867188 42.300781 L 16.867188 40.5625 L 22.292969 40.5625 Z M 22.292969 42.300781 "/>
<path style=" stroke:none;fill-rule:nonzero;fill:url(#radial3);" d="M 25.003906 42.300781 L 30.429688 42.300781 L 30.429688 44.035156 L 25.003906 44.035156 Z M 25.003906 42.300781 "/>
<path style=" stroke:none;fill-rule:nonzero;fill:url(#linear0);" d="M 22.292969 41.863281 L 25.003906 41.863281 L 25.003906 44.035156 L 22.292969 44.035156 Z M 22.292969 41.863281 "/>
<path style=" stroke:none;fill-rule:nonzero;fill:url(#linear1);" d="M 23.816406 4.34375 C 34.226562 4.34375 42.667969 12.785156 42.667969 23.199219 C 42.667969 33.609375 34.226562 42.050781 23.816406 42.050781 C 13.402344 42.050781 4.960938 33.609375 4.960938 23.199219 C 4.960938 12.785156 13.402344 4.34375 23.816406 4.34375 Z M 23.816406 4.34375 "/>
<path style=" stroke:none;fill-rule:nonzero;fill:rgb(100%,100%,100%);fill-opacity:0.470588;" d="M 23.816406 4.34375 C 13.371094 4.34375 4.960938 12.753906 4.960938 23.199219 C 4.960938 23.324219 4.964844 23.453125 4.964844 23.578125 C 5.167969 13.3125 13.496094 5.105469 23.816406 5.105469 C 34.132812 5.105469 42.460938 13.3125 42.664062 23.578125 C 42.667969 23.453125 42.667969 23.324219 42.667969 23.199219 C 42.667969 12.753906 34.257812 4.34375 23.816406 4.34375 Z M 23.816406 4.34375 "/>
<path style=" stroke:none;fill-rule:nonzero;fill:rgb(0%,0%,0%);fill-opacity:0.235294;" d="M 23.816406 42.050781 C 13.371094 42.050781 4.960938 33.640625 4.960938 23.199219 C 4.960938 23.070312 4.964844 22.945312 4.964844 22.816406 C 5.167969 33.085938 13.496094 41.289062 23.816406 41.289062 C 34.132812 41.289062 42.460938 33.085938 42.664062 22.816406 C 42.667969 22.945312 42.667969 23.070312 42.667969 23.199219 C 42.667969 33.640625 34.257812 42.050781 23.816406 42.050781 Z M 23.816406 42.050781 "/>
<path style=" stroke:none;fill-rule:nonzero;fill:rgb(12.941177%,12.941177%,12.941177%);fill-opacity:1;" d="M 23.816406 4.203125 C 13.292969 4.203125 4.820312 12.675781 4.820312 23.199219 C 4.820312 33.71875 13.292969 42.191406 23.816406 42.191406 C 34.335938 42.191406 42.808594 33.71875 42.808594 23.199219 C 42.808594 12.675781 34.335938 4.203125 23.816406 4.203125 Z M 23.816406 4.484375 C 34.183594 4.484375 42.527344 12.828125 42.527344 23.199219 C 42.527344 33.566406 34.183594 41.910156 23.816406 41.910156 C 13.445312 41.910156 5.101562 33.566406 5.101562 23.199219 C 5.101562 12.828125 13.445312 4.484375 23.816406 4.484375 Z M 23.816406 4.484375 "/>
<path style=" stroke:none;fill-rule:nonzero;fill:url(#linear2);" d="M 23.816406 9.304688 C 22.519531 9.304688 21.265625 9.480469 20.074219 9.8125 C 22.851562 10.890625 24.808594 13.582031 24.808594 16.746094 C 24.808594 20.871094 21.488281 24.191406 17.363281 24.191406 C 14.199219 24.191406 11.507812 22.234375 10.429688 19.457031 C 10.097656 20.648438 9.921875 21.902344 9.921875 23.199219 C 9.921875 30.894531 16.117188 37.089844 23.816406 37.089844 C 31.511719 37.089844 37.707031 30.894531 37.707031 23.199219 C 37.707031 15.5 31.511719 9.304688 23.816406 9.304688 Z M 23.816406 9.304688 "/>
<path style=" stroke:none;fill-rule:nonzero;fill:rgb(100%,100%,100%);fill-opacity:0.392157;" d="M 23.816406 9.304688 C 22.519531 9.304688 21.265625 9.480469 20.074219 9.8125 C 20.433594 9.953125 20.78125 10.117188 21.113281 10.3125 C 21.984375 10.140625 22.890625 10.050781 23.816406 10.050781 C 31.386719 10.050781 37.507812 16.046875 37.703125 23.570312 C 37.703125 23.445312 37.707031 23.320312 37.707031 23.199219 C 37.707031 15.5 31.511719 9.304688 23.816406 9.304688 Z M 24.796875 17.121094 C 24.605469 21.070312 21.363281 24.191406 17.363281 24.191406 C 14.199219 24.191406 11.507812 22.234375 10.429688 19.457031 C 10.097656 20.648438 9.921875 21.902344 9.921875 23.199219 C 9.921875 23.324219 9.925781 23.449219 9.929688 23.578125 C 9.957031 22.410156 10.128906 21.277344 10.429688 20.203125 C 11.507812 22.976562 14.199219 24.933594 17.363281 24.933594 C 21.488281 24.933594 24.808594 21.613281 24.808594 17.492188 C 24.808594 17.367188 24.804688 17.246094 24.796875 17.121094 Z M 24.796875 17.121094 "/>
<path style=" stroke:none;fill-rule:nonzero;fill:rgb(0%,0%,0%);fill-opacity:0.235294;" d="M 21.085938 9.570312 C 20.742188 9.640625 20.40625 9.71875 20.074219 9.8125 C 22.742188 10.847656 24.65625 13.378906 24.796875 16.386719 C 24.804688 16.265625 24.808594 16.144531 24.808594 16.023438 C 24.808594 13.257812 23.3125 10.855469 21.085938 9.570312 Z M 37.703125 22.835938 C 37.511719 30.363281 31.390625 36.367188 23.816406 36.367188 C 16.242188 36.367188 10.121094 30.367188 9.925781 22.84375 C 9.925781 22.960938 9.921875 23.078125 9.921875 23.199219 C 9.921875 30.894531 16.117188 37.089844 23.816406 37.089844 C 31.511719 37.089844 37.707031 30.894531 37.707031 23.199219 C 37.707031 23.078125 37.707031 22.957031 37.703125 22.835938 Z M 37.703125 22.835938 "/>
<path style=" stroke:none;fill-rule:nonzero;fill:rgb(12.941177%,12.941177%,12.941177%);fill-opacity:1;" d="M 23.816406 9.164062 C 22.503906 9.164062 21.238281 9.34375 20.039062 9.675781 C 19.980469 9.691406 19.9375 9.742188 19.933594 9.804688 C 19.929688 9.863281 19.96875 9.921875 20.023438 9.941406 C 22.746094 11 24.667969 13.640625 24.667969 16.746094 C 24.667969 20.796875 21.414062 24.050781 17.363281 24.050781 C 14.257812 24.050781 11.617188 22.128906 10.558594 19.40625 C 10.539062 19.351562 10.480469 19.3125 10.421875 19.316406 C 10.359375 19.320312 10.308594 19.363281 10.292969 19.421875 C 9.960938 20.621094 9.78125 21.886719 9.78125 23.199219 C 9.78125 30.96875 16.042969 37.230469 23.816406 37.230469 C 31.585938 37.230469 37.847656 30.96875 37.847656 23.199219 C 37.847656 15.425781 31.585938 9.164062 23.816406 9.164062 Z M 23.816406 9.445312 C 31.433594 9.445312 37.566406 15.578125 37.566406 23.199219 C 37.566406 30.816406 31.433594 36.949219 23.816406 36.949219 C 16.195312 36.949219 10.0625 30.816406 10.0625 23.199219 C 10.0625 22.054688 10.203125 20.949219 10.460938 19.890625 C 11.652344 22.511719 14.289062 24.332031 17.363281 24.332031 C 21.5625 24.332031 24.949219 20.945312 24.949219 16.746094 C 24.949219 13.671875 23.128906 11.035156 20.507812 9.84375 C 21.566406 9.585938 22.671875 9.445312 23.816406 9.445312 Z M 23.816406 9.445312 "/>
</g>
</svg>
